Numix-GalliumOS/24/devices/media-tape.svg

<?xml version="1.0" encoding="UTF-8" standalone="no"?>
<svg
   xmlns:dc="http://purl.org/dc/elements/1.1/"
   xmlns:cc="http://creativecommons.org/ns#"
   xmlns:rdf="http://www.w3.org/1999/02/22-rdf-syntax-ns#"
   xmlns:svg="http://www.w3.org/2000/svg"
   xmlns="http://www.w3.org/2000/svg"
   xmlns:sodipodi="http://sodipodi.sourceforge.net/DTD/sodipodi-0.dtd"
   xmlns:inkscape="http://www.inkscape.org/namespaces/inkscape"
   viewBox="0 0 24 24"
   id="svg2"
   version="1.1"
   inkscape:version="0.91 r"
   sodipodi:docname="media-tape.svg"
   width="24"
   height="24">
  <metadata
     id="metadata12">
    <rdf:RDF>
      <cc:Work
         rdf:about="">
        <dc:format>image/svg+xml</dc:format>
        <dc:type
           rdf:resource="http://purl.org/dc/dcmitype/StillImage" />
        <dc:title />
      </cc:Work>
    </rdf:RDF>
  </metadata>
  <defs
     id="defs10" />
  <sodipodi:namedview
     pagecolor="#ffffff"
     bordercolor="#666666"
     borderopacity="1"
     objecttolerance="10"
     gridtolerance="10"
     guidetolerance="10"
     inkscape:pageopacity="0"
     inkscape:pageshadow="2"
     inkscape:window-width="1920"
     inkscape:window-height="1056"
     id="namedview8"
     showgrid="true"
     inkscape:zoom="27.812866"
     inkscape:cx="10.836118"
     inkscape:cy="8.8693927"
     inkscape:window-x="0"
     inkscape:window-y="24"
     inkscape:window-maximized="1"
     inkscape:current-layer="svg2">
    <inkscape:grid
       type="xygrid"
       id="grid4151" />
  </sodipodi:namedview>
  <circle
     style="opacity:1;fill:#262626;fill-opacity:1;fill-rule:nonzero;stroke:none;stroke-width:2;stroke-linecap:round;stroke-linejoin:miter;stroke-miterlimit:4;stroke-dasharray:none;stroke-dashoffset:0;stroke-opacity:1"
     id="path4176"
     cx="9"
     cy="12"
     r="3.5" />
  <circle
     r="3"
     cy="12"
     cx="15"
     id="circle4187"
     style="opacity:1;fill:#262626;fill-opacity:1;fill-rule:nonzero;stroke:none;stroke-width:2;stroke-linecap:round;stroke-linejoin:miter;stroke-miterlimit:4;stroke-dasharray:none;stroke-dashoffset:0;stroke-opacity:1" />
  <circle
     style="opacity:1;fill:#ffffff;fill-opacity:1;fill-rule:nonzero;stroke:none;stroke-width:2;stroke-linecap:round;stroke-linejoin:miter;stroke-miterlimit:4;stroke-dasharray:none;stroke-dashoffset:0;stroke-opacity:1"
     id="path4189"
     cx="9"
     cy="12"
     r="1.5" />
  <circle
     r="1.5"
     cy="12"
     cx="15"
     id="circle4191"
     style="opacity:1;fill:#ffffff;fill-opacity:1;fill-rule:nonzero;stroke:none;stroke-width:2;stroke-linecap:round;stroke-linejoin:miter;stroke-miterlimit:4;stroke-dasharray:none;stroke-dashoffset:0;stroke-opacity:1" />
  <path
     style="opacity:1;fill:#838488;fill-opacity:1;fill-rule:nonzero;stroke:none;stroke-width:2;stroke-linecap:round;stroke-linejoin:miter;stroke-miterlimit:4;stroke-dasharray:none;stroke-dashoffset:0;stroke-opacity:1"
     d="M 2.5878906,6 C 2.2620083,6 2,6.2727721 2,6.6113281 L 2,17.388672 C 2,17.727227 2.2620083,18 2.5878906,18 L 21.412109,18 C 21.737992,18 22,17.727227 22,17.388672 L 22,6.6113281 C 22,6.2727721 21.737992,6 21.412109,6 L 2.5878906,6 Z M 4.046875,9 8,9 8,15 4.046875,15 3.8574219,14.666016 c -0.8424191,-1.650139 -0.8424191,-3.681892 0,-5.332032 C 3.9172519,9.220238 3.9797371,9.1084 4.046875,9 Z M 16,9 l 3.953125,0 0.189453,0.333984 c 0.842419,1.65014 0.842419,3.681892 0,5.332032 C 20.082748,14.779762 20.020263,14.8916 19.953125,15 L 16,15 16,9 Z"
     id="rect4155"
     inkscape:connector-curvature="0" />
  <path
     style="fill:#383838;fill-opacity:1;fill-rule:evenodd;stroke:none;stroke-width:1px;stroke-linecap:butt;stroke-linejoin:miter;stroke-opacity:1"
     d="m 2,9 0.9830508,0 0,-2 L 21,7 21,9 22,9 22,6 2,6 Z"
     id="path4153"
     inkscape:connector-curvature="0"
     sodipodi:nodetypes="ccccccccc" />
  <path
     style="opacity:1;fill:#fffcd3;fill-opacity:1;fill-rule:nonzero;stroke:none;stroke-width:2;stroke-linecap:round;stroke-linejoin:miter;stroke-miterlimit:4;stroke-dasharray:none;stroke-dashoffset:0;stroke-opacity:1"
     d="m 15,9.5 0,5 c 0,0.277 -0.223,0.5 -0.5,0.5 l -5,0 C 9.223,15 9,14.777 9,14.5 l 0,-5 z"
     id="rect4195"
     inkscape:connector-curvature="0"
     sodipodi:nodetypes="csssscc" />
  <rect
     style="opacity:1;fill:#f57979;fill-opacity:1;fill-rule:nonzero;stroke:none;stroke-width:2;stroke-linecap:round;stroke-linejoin:miter;stroke-miterlimit:4;stroke-dasharray:none;stroke-dashoffset:0;stroke-opacity:1"
     id="rect4193"
     width="6"
     height="1"
     x="9"
     y="9"
     rx="0.5"
     ry="0.5" />
  <path
     style="opacity:0.51399997;fill:#bcbcbc;fill-opacity:1;fill-rule:nonzero;stroke:none;stroke-width:2;stroke-linecap:round;stroke-linejoin:miter;stroke-miterlimit:4;stroke-dasharray:none;stroke-dashoffset:0;stroke-opacity:1"
     d="m 18,6 0,3.055664 2,0 L 20,6 Z m 0,9 0,3 2,0 0,-3 z"
     id="rect4171"
     inkscape:connector-curvature="0"
     sodipodi:nodetypes="cccccccccc" />
</svg>

<svg xmlns="http://www.w3.org/2000/svg" viewBox="0 0 24 24">
 <circle cx="9" cy="12" r="3.5" style="fill:#262626;opacity:1;fill-opacity:1;stroke:none;fill-rule:nonzero"/>
 <circle r="3" cy="12" cx="15" style="fill:#262626;opacity:1;fill-opacity:1;stroke:none;fill-rule:nonzero"/>
 <circle cx="9" cy="12" r="1.5" style="fill:#fff;opacity:1;fill-opacity:1;stroke:none;fill-rule:nonzero"/>
 <circle r="1.5" cy="12" cx="15" style="fill:#fff;opacity:1;fill-opacity:1;stroke:none;fill-rule:nonzero"/>
 <path d="m 2.588 6 c -0.326 0 -0.588 0.273 -0.588 0.611 l 0 10.777 c 0 0.339 0.262 0.611 0.588 0.611 l 18.824 0 c 0.326 0 0.588 -0.273 0.588 -0.611 l 0 -10.777 c 0 -0.339 -0.262 -0.611 -0.588 -0.611 l -18.824 0 m 1.459 3 3.953 0 0 6 -3.953 0 -0.189 -0.334 c -0.842 -1.65 -0.842 -3.682 0 -5.332 c 0.06 -0.114 0.122 -0.226 0.189 -0.334 m 11.953 0 l 3.953 0 0.189 0.334 c 0.842 1.65 0.842 3.682 0 5.332 c -0.06 0.114 -0.122 0.226 -0.189 0.334 l -3.953 0 0 -6" style="fill:#838488;opacity:1;fill-opacity:1;stroke:none;fill-rule:nonzero"/>
 <path d="m 2 9 0.983 0 0 -2 l 18.02 0 0 2 1 0 0 -3 -20 0" style="fill:#383838;fill-opacity:1;stroke:none;fill-rule:evenodd"/>
 <path d="m 15,9.5 0,5 c 0,0.277 -0.223,0.5 -0.5,0.5 l -5,0 C 9.223,15 9,14.777 9,14.5 l 0,-5 z" style="fill:#fffcd3;opacity:1;fill-opacity:1;stroke:none;fill-rule:nonzero"/>
 <rect width="6" height="1" x="9" y="9" rx="0.5" style="fill:#f57979;opacity:1;fill-opacity:1;stroke:none;fill-rule:nonzero"/>
 <path d="m 18 6 0 3.056 2 0 l 0 -3.056 m -2 9 0 3 2 0 0 -3 z" style="fill:#bcbcbc;opacity:0.514;fill-opacity:1;stroke:none;fill-rule:nonzero"/>
</svg>
